assets/images/network.svg

<svg height="28" viewBox="0 0 28 28" width="28" xmlns="http://www.w3.org/2000/svg" xmlns:xlink="http://www.w3.org/1999/xlink"><filter id="a"><feColorMatrix in="SourceGraphic" type="matrix" values="0 0 0 0 0.000000 0 0 0 0 0.000000 0 0 0 0 0.000000 0 0 0 1.000000 0"/></filter><g fill="none" fill-rule="evenodd"><rect height="27.5" rx="5" stroke="#000" stroke-opacity=".2" stroke-width=".5" width="27.5" x=".25" y=".25"/><g filter="url(#a)"><path d="m6.98138298 0c-3.85651596 0-6.98138298 3.12486702-6.98138298 6.98138298 0 3.85651592 3.12486702 6.98138302 6.98138298 6.98138302 3.85651592 0 6.98138302-3.1248671 6.98138302-6.98138302 0-3.85651596-3.1248671-6.98138298-6.98138302-6.98138298zm6.01702132 6.51595745h-1.844016c-.0800532-2.01529256-.6683511-3.79601064-1.55824468-4.98470745 1.89614358.91130319 3.23191488 2.78324468 3.40226068 4.98470745zm-2.7823139 0h-2.76928189v-5.51622341c1.49587766.39840426 2.65199469 2.68457447 2.76928189 5.51622341zm-3.70013295-5.51622341v5.51622341h-2.76928192c.11728724-2.83164894 1.27340426-5.11781915 2.76928192-5.51622341zm-2.14840426.53151596c-.89082447 1.18869681-1.47819149 2.96941489-1.55824468 4.98470745h-1.84494681c.17034575-2.20146277 1.50611702-4.07340426 3.40319149-4.98470745zm-3.40319149 5.91555851h1.84401596c.08005319 2.01529255.66835106 3.79601059 1.55824468 4.98470749-1.89614362-.9113032-3.23191489-2.78324472-3.40226064-4.98470749zm2.78231383 0h2.76928192v5.51622339c-1.49587766-.3984042-2.65199468-2.6845745-2.76928192-5.51622339zm3.70013298 5.51622339v-5.51622339h2.76928189c-.1172872 2.83164889-1.27340423 5.11781919-2.76928189 5.51622339zm2.14840426-.5315159c.89082443-1.1886969 1.47819153-2.96941494 1.55824463-4.98470749h1.844016c-.1694149 2.20146277-1.5051862 4.07340429-3.40226063 4.98470749z" fill="#000" fill-rule="nonzero" transform="translate(7 7)"/></g></g></svg>

<?xml version="1.0" encoding="UTF-8"?>
<svg width="28px" height="28px" viewBox="0 0 28 28" version="1.1" xmlns="http://www.w3.org/2000/svg" xmlns:xlink="http://www.w3.org/1999/xlink">
    <title>编组 2</title>
    <defs>
        <filter id="filter-1">
            <feColorMatrix in="SourceGraphic" type="matrix" values="0 0 0 0 0.000000 0 0 0 0 0.000000 0 0 0 0 0.000000 0 0 0 1.000000 0"></feColorMatrix>
        </filter>
    </defs>
    <g id="页面-1" stroke="none" stroke-width="1" fill="none" fill-rule="evenodd">
        <g id="切图" transform="translate(-802.000000, -22.000000)">
            <g id="编组-2" transform="translate(802.000000, 22.000000)">
                <rect id="矩形" stroke-opacity="0.2" stroke="#000000" stroke-width="0.5" x="0.25" y="0.25" width="27.5" height="27.5" rx="5"></rect>
                <g filter="url(#filter-1)" id="地球-全球">
                    <g transform="translate(7.000000, 7.000000)">
                        <path d="M6.98138298,0 C3.12486702,0 0,3.12486702 0,6.98138298 C0,10.8378989 3.12486702,13.962766 6.98138298,13.962766 C10.8378989,13.962766 13.962766,10.8378989 13.962766,6.98138298 C13.962766,3.12486702 10.8378989,0 6.98138298,0 Z M12.9984043,6.51595745 L11.1543883,6.51595745 C11.0743351,4.50066489 10.4860372,2.71994681 9.59614362,1.53125 C11.4922872,2.44255319 12.8280585,4.31449468 12.9984043,6.51595745 Z M10.2160904,6.51595745 L7.44680851,6.51595745 L7.44680851,0.999734043 C8.94268617,1.3981383 10.0988032,3.68430851 10.2160904,6.51595745 Z M6.51595745,0.999734043 L6.51595745,6.51595745 L3.74667553,6.51595745 C3.86396277,3.68430851 5.02007979,1.3981383 6.51595745,0.999734043 Z M4.36755319,1.53125 C3.47672872,2.71994681 2.8893617,4.50066489 2.80930851,6.51595745 L0.964361702,6.51595745 C1.13470745,4.31449468 2.47047872,2.44255319 4.36755319,1.53125 Z M0.964361702,7.44680851 L2.80837766,7.44680851 C2.88843085,9.46210106 3.47672872,11.2428191 4.36662234,12.431516 C2.47047872,11.5202128 1.13470745,9.64827128 0.964361702,7.44680851 Z M3.74667553,7.44680851 L6.51595745,7.44680851 L6.51595745,12.9630319 C5.02007979,12.5646277 3.86396277,10.2784574 3.74667553,7.44680851 Z M7.44680851,12.9630319 L7.44680851,7.44680851 L10.2160904,7.44680851 C10.0988032,10.2784574 8.94268617,12.5646277 7.44680851,12.9630319 Z M9.59521277,12.431516 C10.4860372,11.2428191 11.0734043,9.46210106 11.1534574,7.44680851 L12.9974734,7.44680851 C12.8280585,9.64827128 11.4922872,11.5202128 9.59521277,12.431516 Z" id="形状" fill="#000000" fill-rule="nonzero"></path>
                    </g>
                </g>
            </g>
        </g>
    </g>
</svg>
